X:63
T:Elvesztettem kecskéimet
M:4/4
L:1/4
K:F
c/d/d/c/ c/d/e/c/ | c/A/A/A/ D D | 
c/d/e/c/ c/d/d/c/ | c/A/A/G/ D D | 
A c/B/ A/G/ F | c/B/A/G/ F F | 
A c/B/ A/G/ F | F/F/E/E/ D D | 

